modules/themify-icons/icons/target.svg

<?xml version="1.0" encoding="utf-8"?>
<!-- Generated by IcoMoon.io -->
<!DOCTYPE svg PUBLIC "-//W3C//DTD SVG 1.1//EN" "http://www.w3.org/Graphics/SVG/1.1/DTD/svg11.dtd">
<svg version="1.1" xmlns="http://www.w3.org/2000/svg" xmlns:xlink="http://www.w3.org/1999/xlink" width="17" height="17" viewBox="0 0 17 17">
<g>
</g>
	<path d="M17.020 8h-2.045c-0.245-3.194-2.806-5.745-6.004-5.977v-2.062h-1v2.065c-3.172 0.258-5.702 2.799-5.946 5.974h-2.045v1h2.045c0.244 3.175 2.774 5.716 5.945 5.974v2.026h1v-2.023c3.198-0.231 5.759-2.782 6.004-5.977h2.045v-1zM8.971 13.977v-1.977h-1v1.974c-2.621-0.252-4.708-2.35-4.946-4.974h1.955v-1h-1.955c0.238-2.624 2.325-4.722 4.946-4.974v1.935h1v-1.938c2.647 0.227 4.764 2.333 5.004 4.977h-1.955v1h1.955c-0.24 2.644-2.357 4.75-5.004 4.977z" fill="#000000" />
</svg>

<svg xmlns="http://www.w3.org/2000/svg" width="17" height="17" viewBox="0 0 17 17"><path d="M17.02 8h-2.045a6.504 6.504 0 00-6.004-5.977V-.039h-1v2.065A6.505 6.505 0 002.025 8H-.02v1h2.045a6.505 6.505 0 005.945 5.974V17h1v-2.023A6.503 6.503 0 0014.974 9h2.045V8zm-8.049 5.977V12h-1v1.974A5.508 5.508 0 013.025 9H4.98V8H3.025a5.508 5.508 0 014.946-4.974v1.935h1V3.023A5.507 5.507 0 0113.975 8H12.02v1h1.955a5.507 5.507 0 01-5.004 4.977z"/></svg>
